X:202
T:B202-  How unhappy is Phyllis in love, or Let Oliver now...
Q:1/4=120
L:1/4
M:3/4
K:Dm
A|dde|^c3/2B/2c|dAd|dff|\
^c3/2B/2c|d2||A|dde|^c3/2B/2c|\
dAd|def|^c3/2B/2c|d2||A|\
dde|fef|gef|gga|\
f2e|f^cd|eef|e3|\
^c3/2B/2c|dd2|eef|e3|^c3/2B/2c|d2|]

